X: 19453
T: Jackson's Coagy
R: jig
M: 6/8
K: Adorian
EAA ABc|BAG BGd|ege gdB|ABA GED|
E2z ABc|BAG BGd|ege gdB|1 ABG ~A3:|2 ABG Aza||
ged ege|ede g3|GEE GEE|GAG Eza|
ged ege|ede ~g3|ege gdB|1 ABG Aza:|2 ABG A3||

